!!!OTL: 387. Wuensche.
!!!COM: Volksweise
!!!ODT: 1830
!!!ARE: Europa, Mitteleuropa, Deutschland
!!!SCT: B0387
!!!TXL: @@DE
!!!YEM: Copyright 1995, estate of Helmut Schaffrath.
**kern	**text
*ICvox	*
*Ivox	*
*clefG2	*
*M3/8	*
*k[f#]	*
*G:	*
=1	=1
!LO:TX:a:t=Ʒart und innig.	!
{8.b	Wär'
16a	ich
8b	ein
=2	=2
8.dd	Vö-
16cc	-ge-
8b}	-lein,
=3	=3
{8a	grüßt'
8g	ich
8a	im
=4	=4
8.b/	Mor-
16a	-gen-
8g}	-ſchein,
=5	=5
{8b	Liebchen,
8b	.
8a#	dich
=6	=6
4b	ſchon.
8r}	.
=7	=7
{8b/	Si-
8an	-tʒend
16bL	auf
16ccJ	.
=8	=8
8.ee	dei-
16dd	-ner
16ccL	Hand,
16bJ}	.
=9	=9
{8b/	ſäng'
8a	ich
16bL	ʒu
16ccJ	.
=10	=10
8.ee	dir
16dd	ge-
16ccL	-wandt,
16bJ}	.
=11	=11
{16bL	lieb-
16aJ	.
8a	-li-
16ccL	-chen
16bJ	.
=12	=12
4a	Ton,
8r}	.
=13	=13
{8b	lieb-
16ddL	-li-
16ccJ	.
16aL	-chen
16f#J	.
=14	=14
4g	Ton.
8r}	.
==	==
!!!AGN: Liebes - Lied, Liebes - Lust
!!!GTL: Liebeslieder - Liebeslust
!!!ONB: ESAC (Essen Associative Code) Database: BOEHME
!!!AMT: simple triple
!!!AIN: vox
!!!EED: Helmut Schaffrath
!!!EEV: 1.0
!!Neuere Volksweiſe. 1830.
!!@@COMMENT:"Text von Joh. Konrad Nänny vor 1818. Ʒuerſt in: St. Schütʒe's Taſchenbuch der Liebe und
!!Freundſchaft für das Jahr 1818. Frankfurt a. M. S. 306: Liebesliedchen. Dann in deſſen "Ge-
!!dichten". Frankfurt a. M. 1830. S. 160. Mit Mel. (der vorſtehenden) ſchon in Serig's "Auswahl
!!deutſcher Lieder". 3. Aufl. Leipʒig 1830, S. 398, aber die 3. Strophe als Anfang geſetʒt."
!!@@END:
!!!Text:  J. K. Nänny
!!!URL-scan: https://archive.org/details/BoehmeVtLieder1895/page/n323/mode/2up
!!!ENC: Anna Maria Matuszewska
!!!EEV: 2024/08/07
*-	*-
